svgs/solid/floppy-disk-circle-arrow-right.svg

<svg xmlns="http://www.w3.org/2000/svg" viewBox="0 0 576 512"><!-- Font Awesome Pro 6.0.0-alpha2 by @fontawesome - https://fontawesome.com License - https://fontawesome.com/license (Commercial License) --><path d="M224 416C188.656 416 160 387.344 160 352S188.656 288 224 288C240.928 288 256.213 294.697 267.658 305.43C292.908 239.164 356.869 192 432 192C437.402 192 442.723 192.33 448 192.807V163.887C448 152.949 441.672 137.672 433.938 129.938L350.062 46.062C342.328 38.328 327.051 32 316.113 32H64C28.654 32 0 60.652 0 96V416C0 451.346 28.654 480 64 480H296.234C278.588 458.633 265.953 433.01 259.951 404.928C249.701 411.904 237.334 416 224 416ZM64 208V112C64 103.162 71.164 96 80 96H304C312.836 96 320 103.162 320 112V208C320 216.836 312.836 224 304 224H80C71.164 224 64 216.836 64 208ZM432 224C352.461 224 287.998 288.463 287.998 368S352.461 512 432 512C511.535 512 575.998 447.537 575.998 368S511.535 224 432 224ZM507.311 379.312L451.311 435.312C448.186 438.438 444.092 440 439.998 440S431.811 438.438 428.686 435.312C422.436 429.062 422.436 418.937 428.686 412.688L457.373 384H367.998C359.162 384 351.998 376.836 351.998 368S359.162 352 367.998 352H457.373L428.686 323.312C422.436 317.062 422.436 306.937 428.686 300.688S445.061 294.438 451.311 300.688L507.311 356.688C513.561 362.938 513.561 373.062 507.311 379.312Z"/></svg>

<svg xmlns="http://www.w3.org/2000/svg" viewBox="0 0 576 512"><!--! Font Awesome Pro 6.0.0-alpha3 by @fontawesome - https://fontawesome.com License - https://fontawesome.com/license (Commercial License) --><path d="M224 416c-35.34 0-64-28.66-64-64s28.66-64 64-64c16.93 0 32.21 6.697 43.66 17.43C292.9 239.2 356.9 192 432 192c5.402 0 10.72 .3301 16 .8066V163.9c0-10.94-6.307-26.16-14.04-33.9l-83.9-83.9C342.3 38.32 327.1 32 316.1 32H64C28.65 32 0 60.65 0 96v320c0 35.35 28.65 64 64 64h232.2c-17.65-21.37-30.28-46.99-36.28-75.07C249.7 411.9 237.3 416 224 416zM64 208v-96C64 103.2 71.16 96 80 96h224C312.8 96 320 103.2 320 112v96C320 216.8 312.8 224 304 224h-224C71.16 224 64 216.8 64 208zM432 224c-79.54 0-144 64.46-144 144s64.46 144 144 144c79.54 0 143.1-64.46 143.1-144S511.5 224 432 224zM507.3 379.3l-56 56C448.2 438.4 444.1 440 439.1 440s-8.187-1.562-11.31-4.688c-6.25-6.25-6.25-16.38 0-22.62L457.4 384h-89.38c-8.836 0-15.1-7.164-15.1-16s7.163-16 15.1-16h89.38l-28.69-28.69c-6.25-6.25-6.25-16.38 0-22.62s16.38-6.25 22.62 0l56 56C513.6 362.9 513.6 373.1 507.3 379.3z"/></svg>
